X:1
T:Title
%%score { ( 1 3 4 ) | ( 2 5 ) }
L:1/8
M:4/4
K:G
V:1 treble nm="Grand Piano"
V:3 treble 
V:4 treble 
V:2 bass 
V:5 bass 
V:1
 z4 z2[Q:1/4=108] D2 | G3 D [G,DG]2 A2 | B2 A2 B2 c2 | d2 d2 c2 B2 |[M:3/4] [FA]6 |[M:1/4] [FB]2 | %6
[M:4/4] c4 z4 | A3 G G2 G2 | F2 B2 B2 _B2 |[M:3/4] [B,DB]6 |[M:1/4] [CD]2 |[M:4/4] B,2 z B A2 G2 | %12
 G2 F2 F2 D2 | [Fc]4 z4 |[M:3/4] A2 G2 G2 |[M:1/4] B2 |[M:4/4] d3 d [A^d]2 [Ad]2 | %17
 [^Ge]2 [EGB]2 [EBd]2 [EAc]2 | [DGB]3 [EGc] [DFB]2 [CFA]2 |[M:3/4] [G,B,G]6 |] %20
V:2
 z4 z2 D,2 | G,3 D, B,,2 [D,A,D]2 | [G,B,G]2 [D,A,D]2 [G,B,G]2 [G,A,G]2 | %3
 [G,B,G]2 [B,DG]2 [A,DF]2 [G,DG]2 |[M:3/4][K:bass] [D,D]6 |[M:1/4] [D,D]2 | %6
[M:4/4] [E,C]2 [F,A,]2 [G,D]2 [F,B,^D]2 | [E,B,E]3 [E,B,E] [E,B,E]2 [E,B,^C]2 | %8
 [F,B,D]2 [F,B,D]2 [F,^CE]2 [F,CE]2 |[M:3/4] B,,6 |[M:1/4] D,2 |[M:4/4] G,2 z D [G,B,D]2 [D,B,D]2 | %12
 [A,CD]2 [D,CD]2 [A,CD]2 D,2 | A,2 z F D,2 D,2 |[M:3/4] [G,CD]2 [D,B,D]2[K:treble] [G,B,D]2 | %15
[M:1/4] [G,DG]2 |[M:4/4] [G,B,G]3 [G,B,G][K:bass] [F,B,]2 [B,,B,]2 | [E,B,]2 E,2 A,2 A,2 | %18
 D,3 D, D,2 D,2 |[M:3/4] z2 D,2 G,,2 |] %20
V:3
 x8 | x8 | x8 | x8 |[M:3/4] x6 |[M:1/4] x2 |[M:4/4] G2 z c B2 A2 | x8 | x8 |[M:3/4] x6 | %10
[M:1/4] x2 |[M:4/4] [DB]4 z4 | x8 | D2 z c [DFB]2 [CFA]2 |[M:3/4] x6 |[M:1/4] x2 |[M:4/4] x8 | x8 | %18
 x8 |[M:3/4] x6 |] %20
V:4
 x8 | x8 | x8 | x8 |[M:3/4] x6 |[M:1/4] x2 |[M:4/4] z2 D2 z4 | x8 | x8 |[M:3/4] x6 |[M:1/4] x2 | %11
[M:4/4] z2 B,2 z4 | x8 | z2 D2 z4 |[M:3/4] x6 |[M:1/4] x2 |[M:4/4] x8 | x8 | x8 |[M:3/4] x6 |] %20
V:5
 x8 | x8 | x8 | x8 |[M:3/4][K:bass] x6 |[M:1/4] x2 |[M:4/4] x8 | x8 | x8 |[M:3/4] x6 |[M:1/4] x2 | %11
[M:4/4] z2 D,2 z4 | x8 | z2 D,2 z4 |[M:3/4] x4[K:treble] x2 |[M:1/4] x2 |[M:4/4] x4[K:bass] x4 | %17
 x8 | x8 |[M:3/4] G,,4 z2 |] %20

